src/pos-icons/network-strength-4-alert.svg

<svg height="24" viewBox="0 0 24 24" width="24" xmlns="http://www.w3.org/2000/svg"><path d="m19 17h2v-8h-2m0 12h2v-2h-2m-18 2h16v-14h4v-6"/></svg>

<?xml version="1.0" encoding="UTF-8"?><!DOCTYPE svg PUBLIC "-//W3C//DTD SVG 1.1//EN" "http://www.w3.org/Graphics/SVG/1.1/DTD/svg11.dtd"><svg xmlns="http://www.w3.org/2000/svg" xmlns:xlink="http://www.w3.org/1999/xlink" version="1.1" id="mdi-network-strength-4-alert" width="24" height="24" viewBox="0 0 24 24"><path d="M19,17H21V9H19M19,21H21V19H19M1,21H17V7H21V1" /></svg>
